static/img/kroki/606b68d3754e6444f471bc04381d10b9.svg

<?xml version="1.0" encoding="us-ascii" standalone="no"?><svg xmlns="http://www.w3.org/2000/svg" xmlns:xlink="http://www.w3.org/1999/xlink" contentStyleType="text/css" height="899px" preserveAspectRatio="none" style="width:481px;height:899px;" version="1.1" viewBox="0 0 481 899" width="481px" zoomAndPan="magnify"><defs/><g><!--class digitalocean_load_balancer--><g id="elem_digitalocean_load_balancer"><rect codeLine="23" fill="#3D176E" height="205.5703" id="digitalocean_load_balancer" rx="2.5" ry="2.5" style="stroke:#000D19;stroke-width:0.5;" width="352" x="67.5" y="686.44"/><ellipse cx="121.75" cy="706.3345" fill="#ADD1B2" rx="11" ry="11" style="stroke:#181818;stroke-width:1.0;"/><path d="M124.7188,711.9752 Q124.1406,712.272 123.5,712.4127 Q122.8594,712.5689 122.1563,712.5689 Q119.6563,712.5689 118.3281,710.9283 Q117.0156,709.272 117.0156,706.147 Q117.0156,703.022 118.3281,701.3658 Q119.6563,699.7095 122.1563,699.7095 Q122.8594,699.7095 123.5,699.8658 Q124.1563,700.022 124.7188,700.3189 L124.7188,703.0377 Q124.0938,702.4595 123.5,702.1939 Q122.9063,701.9127 122.2813,701.9127 Q120.9375,701.9127 120.25,702.9908 Q119.5625,704.0533 119.5625,706.147 Q119.5625,708.2408 120.25,709.3189 Q120.9375,710.3814 122.2813,710.3814 Q122.9063,710.3814 123.5,710.1158 Q124.0938,709.8345 124.7188,709.2564 L124.7188,711.9752 Z " fill="#000000"/><text fill="#D9B8FF" font-family="Helvetica" font-size="17" lengthAdjust="spacing" textLength="225" x="147.25" y="712.2198">digitalocean_load_balancer</text><line style="stroke:#000D19;stroke-width:0.5;" x1="68.5" x2="418.5" y1="726.2291" y2="726.2291"/><text fill="#D9B8FF" font-family="sans-serif" font-size="14" font-weight="bold" lengthAdjust="spacing" textLength="265" x="78.5" y="748.2242">disable_lets_encrypt_dns_records</text><text fill="#D9B8FF" font-family="sans-serif" font-size="14" lengthAdjust="spacing" textLength="65" x="343.5" y="748.2242">: boolean</text><text fill="#D9B8FF" font-family="sans-serif" font-size="14" font-weight="bold" lengthAdjust="spacing" textLength="209" x="78.5" y="774.5211">enable_backend_keepalive</text><text fill="#D9B8FF" font-family="sans-serif" font-size="14" lengthAdjust="spacing" textLength="65" x="287.5" y="774.5211">: boolean</text><text fill="#D9B8FF" font-family="sans-serif" font-size="14" font-weight="bold" lengthAdjust="spacing" textLength="178" x="78.5" y="800.8179">enable_proxy_protocol</text><text fill="#D9B8FF" font-family="sans-serif" font-size="14" lengthAdjust="spacing" textLength="65" x="256.5" y="800.8179">: boolean</text><text fill="#D9B8FF" font-family="sans-serif" font-size="14" font-weight="bold" lengthAdjust="spacing" textLength="157" x="78.5" y="827.1148">loadbalancer_status</text><text fill="#D9B8FF" font-family="sans-serif" font-size="14" lengthAdjust="spacing" textLength="48" x="235.5" y="827.1148">: string</text><text fill="#D9B8FF" font-family="sans-serif" font-size="14" font-weight="bold" lengthAdjust="spacing" textLength="73" x="78.5" y="853.4117">nr_nodes</text><text fill="#D9B8FF" font-family="sans-serif" font-size="14" lengthAdjust="spacing" textLength="44" x="151.5" y="853.4117">: int64</text><text fill="#D9B8FF" font-family="sans-serif" font-size="14" font-weight="bold" lengthAdjust="spacing" textLength="173" x="78.5" y="879.7086">redirect_http_to_https</text><text fill="#D9B8FF" font-family="sans-serif" font-size="14" lengthAdjust="spacing" textLength="65" x="251.5" y="879.7086">: boolean</text></g><!--class digitalocean_resource--><g id="elem_digitalocean_resource"><rect codeLine="31" fill="#3D176E" height="74.0859" id="digitalocean_resource" rx="2.5" ry="2.5" style="stroke:#000D19;stroke-width:0.5;" width="223" x="7" y="465.06"/><ellipse cx="22" cy="484.9545" fill="#ADD1B2" rx="11" ry="11" style="stroke:#181818;stroke-width:1.0;"/><path d="M24.9688,490.5952 Q24.3906,490.892 23.75,491.0327 Q23.1094,491.1889 22.4063,491.1889 Q19.9063,491.1889 18.5781,489.5483 Q17.2656,487.892 17.2656,484.767 Q17.2656,481.642 18.5781,479.9858 Q19.9063,478.3295 22.4063,478.3295 Q23.1094,478.3295 23.75,478.4858 Q24.4063,478.642 24.9688,478.9389 L24.9688,481.6577 Q24.3438,481.0795 23.75,480.8139 Q23.1563,480.5327 22.5313,480.5327 Q21.1875,480.5327 20.5,481.6108 Q19.8125,482.6733 19.8125,484.767 Q19.8125,486.8608 20.5,487.9389 Q21.1875,489.0014 22.5313,489.0014 Q23.1563,489.0014 23.75,488.7358 Q24.3438,488.4545 24.9688,487.8764 L24.9688,490.5952 Z " fill="#000000"/><text fill="#D9B8FF" font-family="Helvetica" font-size="17" lengthAdjust="spacing" textLength="181" x="41" y="490.8398">digitalocean_resource</text><line style="stroke:#000D19;stroke-width:0.5;" x1="8" x2="229" y1="504.8491" y2="504.8491"/><text fill="#D9B8FF" font-family="sans-serif" font-size="14" font-weight="bold" lengthAdjust="spacing" textLength="27" x="18" y="526.8442">urn</text><text fill="#D9B8FF" font-family="sans-serif" font-size="14" lengthAdjust="spacing" textLength="48" x="45" y="526.8442">: string</text></g><!--class load_balancer--><g id="elem_load_balancer"><rect codeLine="34" fill="#3D176E" height="126.6797" id="load_balancer" rx="2.5" ry="2.5" style="stroke:#000D19;stroke-width:0.5;" width="209" x="265" y="438.76"/><ellipse cx="303.4" cy="458.6545" fill="#ADD1B2" rx="11" ry="11" style="stroke:#181818;stroke-width:1.0;"/><path d="M306.3688,464.2952 Q305.7906,464.592 305.15,464.7327 Q304.5094,464.8889 303.8063,464.8889 Q301.3063,464.8889 299.9781,463.2483 Q298.6656,461.592 298.6656,458.467 Q298.6656,455.342 299.9781,453.6858 Q301.3063,452.0295 303.8063,452.0295 Q304.5094,452.0295 305.15,452.1858 Q305.8063,452.342 306.3688,452.6389 L306.3688,455.3577 Q305.7438,454.7795 305.15,454.5139 Q304.5563,454.2327 303.9313,454.2327 Q302.5875,454.2327 301.9,455.3108 Q301.2125,456.3733 301.2125,458.467 Q301.2125,460.5608 301.9,461.6389 Q302.5875,462.7014 303.9313,462.7014 Q304.5563,462.7014 305.15,462.4358 Q305.7438,462.1545 306.3688,461.5764 L306.3688,464.2952 Z " fill="#000000"/><text fill="#D9B8FF" font-family="Helvetica" font-size="17" lengthAdjust="spacing" textLength="115" x="327.6" y="464.5398">load_balancer</text><line style="stroke:#000D19;stroke-width:0.5;" x1="266" x2="473" y1="478.5491" y2="478.5491"/><text fill="#D9B8FF" font-family="sans-serif" font-size="14" font-weight="bold" lengthAdjust="spacing" textLength="76" x="276" y="500.5442">backends</text><text fill="#D9B8FF" font-family="sans-serif" font-size="14" lengthAdjust="spacing" textLength="58" x="352" y="500.5442">: string[]</text><text fill="#D9B8FF" font-family="sans-serif" font-size="14" font-weight="bold" lengthAdjust="spacing" textLength="56" x="276" y="526.8411">lb_type</text><text fill="#D9B8FF" font-family="sans-serif" font-size="14" lengthAdjust="spacing" textLength="48" x="332" y="526.8411">: string</text><text fill="#D9B8FF" font-family="sans-serif" font-size="14" font-weight="bold" lengthAdjust="spacing" textLength="139" x="276" y="553.1379">public_ip_address</text><text fill="#D9B8FF" font-family="sans-serif" font-size="14" lengthAdjust="spacing" textLength="48" x="415" y="553.1379">: string</text></g><!--class resource--><g id="elem_resource"><rect codeLine="39" fill="#3D176E" height="310.7578" id="resource" rx="2.5" ry="2.5" style="stroke:#000D19;stroke-width:0.5;" width="227" x="130" y="7"/><ellipse cx="198.75" cy="26.8945" fill="#ADD1B2" rx="11" ry="11" style="stroke:#181818;stroke-width:1.0;"/><path d="M201.7188,32.5352 Q201.1406,32.832 200.5,32.9727 Q199.8594,33.1289 199.1563,33.1289 Q196.6563,33.1289 195.3281,31.4883 Q194.0156,29.832 194.0156,26.707 Q194.0156,23.582 195.3281,21.9258 Q196.6563,20.2695 199.1563,20.2695 Q199.8594,20.2695 200.5,20.4258 Q201.1563,20.582 201.7188,20.8789 L201.7188,23.5977 Q201.0938,23.0195 200.5,22.7539 Q199.9063,22.4727 199.2813,22.4727 Q197.9375,22.4727 197.25,23.5508 Q196.5625,24.6133 196.5625,26.707 Q196.5625,28.8008 197.25,29.8789 Q197.9375,30.9414 199.2813,30.9414 Q199.9063,30.9414 200.5,30.6758 Q201.0938,30.3945 201.7188,29.8164 L201.7188,32.5352 Z " fill="#000000"/><text fill="#D9B8FF" font-family="Helvetica" font-size="17" lengthAdjust="spacing" textLength="71" x="224.25" y="32.7798">resource</text><line style="stroke:#000D19;stroke-width:0.5;" x1="131" x2="356" y1="46.7891" y2="46.7891"/><text fill="#D9B8FF" font-family="sans-serif" font-size="14" font-weight="bold" lengthAdjust="spacing" textLength="29" x="141" y="68.7842">age</text><text fill="#D9B8FF" font-family="sans-serif" font-size="14" lengthAdjust="spacing" textLength="66" x="170" y="68.7842">: duration</text><text fill="#D9B8FF" font-family="sans-serif" font-size="14" font-weight="bold" lengthAdjust="spacing" textLength="43" x="141" y="95.0811">atime</text><text fill="#D9B8FF" font-family="sans-serif" font-size="14" lengthAdjust="spacing" textLength="70" x="184" y="95.0811">: datetime</text><text fill="#D9B8FF" font-family="sans-serif" font-size="14" font-weight="bold" lengthAdjust="spacing" textLength="43" x="141" y="121.3779">ctime</text><text fill="#D9B8FF" font-family="sans-serif" font-size="14" lengthAdjust="spacing" textLength="70" x="184" y="121.3779">: datetime</text><text fill="#D9B8FF" font-family="sans-serif" font-size="14" font-weight="bold" lengthAdjust="spacing" textLength="14" x="141" y="147.6748">id</text><text fill="#D9B8FF" font-family="sans-serif" font-size="14" lengthAdjust="spacing" textLength="48" x="155" y="147.6748">: string</text><text fill="#D9B8FF" font-family="sans-serif" font-size="14" font-weight="bold" lengthAdjust="spacing" textLength="33" x="141" y="173.9717">kind</text><text fill="#D9B8FF" font-family="sans-serif" font-size="14" lengthAdjust="spacing" textLength="48" x="174" y="173.9717">: string</text><text fill="#D9B8FF" font-family="sans-serif" font-size="14" font-weight="bold" lengthAdjust="spacing" textLength="90" x="141" y="200.2686">last_access</text><text fill="#D9B8FF" font-family="sans-serif" font-size="14" lengthAdjust="spacing" textLength="66" x="231" y="200.2686">: duration</text><text fill="#D9B8FF" font-family="sans-serif" font-size="14" font-weight="bold" lengthAdjust="spacing" textLength="90" x="141" y="226.5654">last_update</text><text fill="#D9B8FF" font-family="sans-serif" font-size="14" lengthAdjust="spacing" textLength="66" x="231" y="226.5654">: duration</text><text fill="#D9B8FF" font-family="sans-serif" font-size="14" font-weight="bold" lengthAdjust="spacing" textLength="48" x="141" y="252.8623">mtime</text><text fill="#D9B8FF" font-family="sans-serif" font-size="14" lengthAdjust="spacing" textLength="70" x="189" y="252.8623">: datetime</text><text fill="#D9B8FF" font-family="sans-serif" font-size="14" font-weight="bold" lengthAdjust="spacing" textLength="43" x="141" y="279.1592">name</text><text fill="#D9B8FF" font-family="sans-serif" font-size="14" lengthAdjust="spacing" textLength="48" x="184" y="279.1592">: string</text><text fill="#D9B8FF" font-family="sans-serif" font-size="14" font-weight="bold" lengthAdjust="spacing" textLength="34" x="141" y="305.4561">tags</text><text fill="#D9B8FF" font-family="sans-serif" font-size="14" lengthAdjust="spacing" textLength="171" x="175" y="305.4561">: dictionary[string, string]</text></g><!--reverse link digitalocean_resource to digitalocean_load_balancer--><g id="link_digitalocean_resource_digitalocean_load_balancer"><path codeLine="51" d="M141.6874,555.9853 C157.8474,592.8453 176.35,635.05 198.76,686.17 " fill="none" id="digitalocean_resource-backto-digitalocean_load_balancer" style="stroke:#FFAF37;stroke-width:2.0;"/><polygon fill="none" points="134.46,539.5,136.1923,558.3944,147.1825,553.5761,134.46,539.5" style="stroke:#FFAF37;stroke-width:2.0;"/></g><!--reverse link load_balancer to digitalocean_load_balancer--><g id="link_load_balancer_digitalocean_load_balancer"><path codeLine="52" d="M334.5733,582.1336 C318.9933,617.3836 306.44,645.8 288.66,686.02 " fill="none" id="load_balancer-backto-digitalocean_load_balancer" style="stroke:#FFAF37;stroke-width:2.0;"/><polygon fill="none" points="341.85,565.67,329.0855,579.708,340.0612,584.5592,341.85,565.67" style="stroke:#FFAF37;stroke-width:2.0;"/></g><!--reverse link resource to digitalocean_resource--><g id="link_resource_digitalocean_resource"><path codeLine="53" d="M180.0538,334.7915 C159.8738,389.3315 145.19,428.99 132.02,464.57 " fill="none" id="resource-backto-digitalocean_resource" style="stroke:#FFAF37;stroke-width:2.0;"/><polygon fill="none" points="186.3,317.91,174.4266,332.7094,185.681,336.8736,186.3,317.91" style="stroke:#FFAF37;stroke-width:2.0;"/></g><!--reverse link resource to load_balancer--><g id="link_resource_load_balancer"><path codeLine="54" d="M307.4437,334.7738 C323.3237,377.3238 333.36,404.24 346.08,438.32 " fill="none" id="resource-backto-load_balancer" style="stroke:#FFAF37;stroke-width:2.0;"/><polygon fill="none" points="301.15,317.91,301.8224,336.8717,313.065,332.6759,301.15,317.91" style="stroke:#FFAF37;stroke-width:2.0;"/></g><!--SRC=[XPBBRjim44Nt_We1sHarO3Tj71VTf0QATXCKJNT1G8p8aKoO8eNXAAdx-FUIabrGZzWRKPXxEFVEW3kjCCEgvaDMOPKZ-PdVQri3GPNT4RcNhJEEigkYWE9wFHG_EyiNWNkeCFk2vXbPInWIFtPQxYrwdxrDf4yWzoMvnggkFHDO7oIqd51R0zxVCPFE6yOaZDhajqKn98TDhwxLQds38yoHGZeYo-LIhJP3vABLsRd_4m_w5sQhT6dtZd4KSsJHKcTJHY89EHhqfB-QyHiefMsPlKzgtxjCP95wzOSTAFSIwGACJsqy8w7ZGutRqLIukLN5UXB- -Xeyat5rcTAbPZ1E8bXX72YHWm4hGwxVi_bSQG-vGM6GlK0hwL2pKDOBGXcsvkVp3rdkd0ct0ussXVDWYLQ9FM8DHZ_Z95MJ-tc8NtRIcJuIWvno2C_0JUlam_EqPT0j2UiKjaLj-UPTg14g7LAns37NWbrxzWB-dPgPqBk69BRZDcGJdnC_NijnmYJKurECdOkuyrxKkicDbaBN8Zo3OEOd37ePe6mRg8Q0jOlR26VLrO0n_eUQdAXfrNCEhw5V25uiGCfZYCIXLPewzXeerOIFXQe_8qFPTTGoNWCwF7RQcoFp54QTtlh7Ful5uimhdFMNVn4_r_Ya3Q5-Xty0]--></g></svg>

<svg xmlns="http://www.w3.org/2000/svg" width="481" height="899" viewBox="0 0 481 899"><rect width="352" height="205.57" x="67.5" y="686.44" fill="#3D176E" rx="2.5" ry="2.5" style="stroke:#000d19;stroke-width:.5"/><circle cx="121.75" cy="706.335" r="11" fill="#ADD1B2" style="stroke:#181818;stroke-width:1"/><path d="M124.719 711.975q-.578.297-1.219.438-.64.156-1.344.156-2.5 0-3.828-1.64-1.312-1.657-1.312-4.782t1.312-4.781q1.328-1.656 3.828-1.656.703 0 1.344.156.656.156 1.219.453v2.719q-.625-.578-1.219-.844-.594-.281-1.219-.281-1.344 0-2.031 1.078-.687 1.062-.687 3.156t.687 3.172q.688 1.062 2.031 1.062.625 0 1.219-.265.594-.281 1.219-.86z"/><text x="147.25" y="712.22" fill="#D9B8FF" font-family="Helvetica" font-size="17" textLength="225">digitalocean_load_balancer</text><path d="M68.5 726.229h350" style="stroke:#000d19;stroke-width:.5"/><text x="78.5" y="748.224" fill="#D9B8FF" font-family="sans-serif" font-size="14" font-weight="bold" textLength="265">disable_lets_encrypt_dns_records</text><text x="343.5" y="748.224" fill="#D9B8FF" font-family="sans-serif" font-size="14" textLength="65">: boolean</text><text x="78.5" y="774.521" fill="#D9B8FF" font-family="sans-serif" font-size="14" font-weight="bold" textLength="209">enable_backend_keepalive</text><text x="287.5" y="774.521" fill="#D9B8FF" font-family="sans-serif" font-size="14" textLength="65">: boolean</text><text x="78.5" y="800.818" fill="#D9B8FF" font-family="sans-serif" font-size="14" font-weight="bold" textLength="178">enable_proxy_protocol</text><text x="256.5" y="800.818" fill="#D9B8FF" font-family="sans-serif" font-size="14" textLength="65">: boolean</text><text x="78.5" y="827.115" fill="#D9B8FF" font-family="sans-serif" font-size="14" font-weight="bold" textLength="157">loadbalancer_status</text><text x="235.5" y="827.115" fill="#D9B8FF" font-family="sans-serif" font-size="14" textLength="48">: string</text><text x="78.5" y="853.412" fill="#D9B8FF" font-family="sans-serif" font-size="14" font-weight="bold" textLength="73">nr_nodes</text><text x="151.5" y="853.412" fill="#D9B8FF" font-family="sans-serif" font-size="14" textLength="44">: int64</text><text x="78.5" y="879.709" fill="#D9B8FF" font-family="sans-serif" font-size="14" font-weight="bold" textLength="173">redirect_http_to_https</text><text x="251.5" y="879.709" fill="#D9B8FF" font-family="sans-serif" font-size="14" textLength="65">: boolean</text><rect width="223" height="74.086" x="7" y="465.06" fill="#3D176E" rx="2.5" ry="2.5" style="stroke:#000d19;stroke-width:.5"/><circle cx="22" cy="484.954" r="11" fill="#ADD1B2" style="stroke:#181818;stroke-width:1"/><path d="M24.969 490.595q-.578.297-1.219.438-.64.156-1.344.156-2.5 0-3.828-1.64-1.312-1.657-1.312-4.782t1.312-4.781q1.328-1.656 3.828-1.656.703 0 1.344.156.656.156 1.219.453v2.719q-.625-.579-1.219-.844-.594-.281-1.219-.281-1.343 0-2.031 1.078-.687 1.062-.687 3.156t.687 3.172Q21.188 489 22.531 489q.625 0 1.219-.265.594-.281 1.219-.86z"/><text x="41" y="490.84" fill="#D9B8FF" font-family="Helvetica" font-size="17" textLength="181">digitalocean_resource</text><path d="M8 504.849h221" style="stroke:#000d19;stroke-width:.5"/><text x="18" y="526.844" fill="#D9B8FF" font-family="sans-serif" font-size="14" font-weight="bold" textLength="27">urn</text><text x="45" y="526.844" fill="#D9B8FF" font-family="sans-serif" font-size="14" textLength="48">: string</text><rect width="209" height="126.68" x="265" y="438.76" fill="#3D176E" rx="2.5" ry="2.5" style="stroke:#000d19;stroke-width:.5"/><circle cx="303.4" cy="458.654" r="11" fill="#ADD1B2" style="stroke:#181818;stroke-width:1"/><path d="M306.369 464.295q-.578.297-1.219.438-.64.156-1.344.156-2.5 0-3.828-1.64-1.312-1.657-1.312-4.782t1.312-4.781q1.328-1.656 3.828-1.656.703 0 1.344.156.656.156 1.219.453v2.719q-.625-.579-1.219-.844-.594-.281-1.219-.281-1.344 0-2.031 1.078-.687 1.062-.687 3.156t.687 3.172q.688 1.062 2.031 1.062.625 0 1.219-.265.594-.281 1.219-.86z"/><text x="327.6" y="464.54" fill="#D9B8FF" font-family="Helvetica" font-size="17" textLength="115">load_balancer</text><path d="M266 478.549h207" style="stroke:#000d19;stroke-width:.5"/><text x="276" y="500.544" fill="#D9B8FF" font-family="sans-serif" font-size="14" font-weight="bold" textLength="76">backends</text><text x="352" y="500.544" fill="#D9B8FF" font-family="sans-serif" font-size="14" textLength="58">: string[]</text><text x="276" y="526.841" fill="#D9B8FF" font-family="sans-serif" font-size="14" font-weight="bold" textLength="56">lb_type</text><text x="332" y="526.841" fill="#D9B8FF" font-family="sans-serif" font-size="14" textLength="48">: string</text><text x="276" y="553.138" fill="#D9B8FF" font-family="sans-serif" font-size="14" font-weight="bold" textLength="139">public_ip_address</text><text x="415" y="553.138" fill="#D9B8FF" font-family="sans-serif" font-size="14" textLength="48">: string</text><rect width="227" height="310.758" x="130" y="7" fill="#3D176E" rx="2.5" ry="2.5" style="stroke:#000d19;stroke-width:.5"/><circle cx="198.75" cy="26.895" r="11" fill="#ADD1B2" style="stroke:#181818;stroke-width:1"/><path d="M201.719 32.535q-.578.297-1.219.438-.64.156-1.344.156-2.5 0-3.828-1.64-1.312-1.657-1.312-4.782t1.312-4.781q1.328-1.656 3.828-1.656.703 0 1.344.156.656.156 1.219.453v2.719q-.625-.578-1.219-.844-.594-.281-1.219-.281-1.344 0-2.031 1.078-.687 1.062-.687 3.156t.687 3.172q.688 1.062 2.031 1.062.625 0 1.219-.265.594-.281 1.219-.86z"/><text x="224.25" y="32.78" fill="#D9B8FF" font-family="Helvetica" font-size="17" textLength="71">resource</text><path d="M131 46.789h225" style="stroke:#000d19;stroke-width:.5"/><text x="141" y="68.784" fill="#D9B8FF" font-family="sans-serif" font-size="14" font-weight="bold" textLength="29">age</text><text x="170" y="68.784" fill="#D9B8FF" font-family="sans-serif" font-size="14" textLength="66">: duration</text><text x="141" y="95.081" fill="#D9B8FF" font-family="sans-serif" font-size="14" font-weight="bold" textLength="43">atime</text><text x="184" y="95.081" fill="#D9B8FF" font-family="sans-serif" font-size="14" textLength="70">: datetime</text><text x="141" y="121.378" fill="#D9B8FF" font-family="sans-serif" font-size="14" font-weight="bold" textLength="43">ctime</text><text x="184" y="121.378" fill="#D9B8FF" font-family="sans-serif" font-size="14" textLength="70">: datetime</text><text x="141" y="147.675" fill="#D9B8FF" font-family="sans-serif" font-size="14" font-weight="bold" textLength="14">id</text><text x="155" y="147.675" fill="#D9B8FF" font-family="sans-serif" font-size="14" textLength="48">: string</text><text x="141" y="173.972" fill="#D9B8FF" font-family="sans-serif" font-size="14" font-weight="bold" textLength="33">kind</text><text x="174" y="173.972" fill="#D9B8FF" font-family="sans-serif" font-size="14" textLength="48">: string</text><text x="141" y="200.269" fill="#D9B8FF" font-family="sans-serif" font-size="14" font-weight="bold" textLength="90">last_access</text><text x="231" y="200.269" fill="#D9B8FF" font-family="sans-serif" font-size="14" textLength="66">: duration</text><text x="141" y="226.565" fill="#D9B8FF" font-family="sans-serif" font-size="14" font-weight="bold" textLength="90">last_update</text><text x="231" y="226.565" fill="#D9B8FF" font-family="sans-serif" font-size="14" textLength="66">: duration</text><text x="141" y="252.862" fill="#D9B8FF" font-family="sans-serif" font-size="14" font-weight="bold" textLength="48">mtime</text><text x="189" y="252.862" fill="#D9B8FF" font-family="sans-serif" font-size="14" textLength="70">: datetime</text><text x="141" y="279.159" fill="#D9B8FF" font-family="sans-serif" font-size="14" font-weight="bold" textLength="43">name</text><text x="184" y="279.159" fill="#D9B8FF" font-family="sans-serif" font-size="14" textLength="48">: string</text><text x="141" y="305.456" fill="#D9B8FF" font-family="sans-serif" font-size="14" font-weight="bold" textLength="34">tags</text><text x="175" y="305.456" fill="#D9B8FF" font-family="sans-serif" font-size="14" textLength="171">: dictionary[string, string]</text><path fill="none" d="M141.687 555.985 198.76 686.17m-64.3-146.67 1.732 18.894 10.99-4.818zm200.113 42.634c-15.58 35.25-28.133 63.666-45.913 103.886m53.19-120.35-12.764 14.038 10.975 4.851z" style="stroke:#ffaf37;stroke-width:2"/><g fill="none"><path d="M180.054 334.792c-20.18 54.54-34.864 94.198-48.034 129.778" style="stroke:#ffaf37;stroke-width:2"/><path d="m186.3 317.91-11.873 14.8 11.254 4.164z" style="stroke:#ffaf37;stroke-width:2"/></g><path fill="none" d="M307.444 334.774c15.88 42.55 25.916 69.466 38.636 103.546m-44.93-120.41.672 18.962 11.243-4.196z" style="stroke:#ffaf37;stroke-width:2"/></svg>
